X:1
T:[ID 2-46a]
T:[ID 2-46a]
T:Bezeichnung standardisiert: Menuett Men\"uet 5.
T:Urheber unbekannt Datum in der hier transkribierten schriftlichen Quelle: 1767
C:Urheber unbekannt
C:Datum in der hier transkribierten schriftlichen Quelle: 1767
L:1/8
M:3/4
K:D
V:1 treble 
V:1
 a3 gfg | a3 gfg | af bgec | d6 | GBdg b2 | FAdf a2 | E2 g2 f2 | e6 :: a3 bc'a | gfe^d e2 | %10
 g3 abg | fedc d2 | GBdg b2 | FAdf a2 | egfedc | d6 :| %16

